src/symbolic/mimetypes/application-x-addon-symbolic.svg

<svg xmlns="http://www.w3.org/2000/svg" width="16" height="16"><path d="M6.5 1C5.67 1 5 1.67 5 2.5V4H2c-.55 0-1 .45-1 1v3h1.5C3.33 8 4 8.67 4 9.5S3.33 11 2.5 11H1v3c0 .55.45 1 1 1h3v-1.5c0-.83.67-1.5 1.5-1.5s1.5.67 1.5 1.5V15h3c.55 0 1-.45 1-1v-3h1.5c.83 0 1.5-.67 1.5-1.5S14.33 8 13.5 8H12V5c0-.55-.45-1-1-1H8V2.5C8 1.67 7.33 1 6.5 1z" fill="#5d656b"/></svg>

<?xml version="1.0" encoding="UTF-8" standalone="no"?>
<svg
   xmlns:dc="http://purl.org/dc/elements/1.1/"
   xmlns:cc="http://creativecommons.org/ns#"
   xmlns:rdf="http://www.w3.org/1999/02/22-rdf-syntax-ns#"
   xmlns:svg="http://www.w3.org/2000/svg"
   xmlns="http://www.w3.org/2000/svg"
   xmlns:sodipodi="http://sodipodi.sourceforge.net/DTD/sodipodi-0.dtd"
   xmlns:inkscape="http://www.inkscape.org/namespaces/inkscape"
   width="16"
   height="16"
   version="1.1"
   id="svg4"
   sodipodi:docname="application-x-addon-symbolic.svg"
   inkscape:version="0.92.4 (5da689c313, 2019-01-14)">
  <metadata
     id="metadata10">
    <rdf:RDF>
      <cc:Work
         rdf:about="">
        <dc:format>image/svg+xml</dc:format>
        <dc:type
           rdf:resource="http://purl.org/dc/dcmitype/StillImage" />
      </cc:Work>
    </rdf:RDF>
  </metadata>
  <defs
     id="defs8" />
  <sodipodi:namedview
     pagecolor="#ffffff"
     bordercolor="#666666"
     borderopacity="1"
     objecttolerance="10"
     gridtolerance="10"
     guidetolerance="10"
     inkscape:pageopacity="0"
     inkscape:pageshadow="2"
     inkscape:window-width="1366"
     inkscape:window-height="710"
     id="namedview6"
     showgrid="false"
     inkscape:zoom="14.75"
     inkscape:cx="-1.0169492"
     inkscape:cy="8"
     inkscape:window-x="0"
     inkscape:window-y="0"
     inkscape:window-maximized="1"
     inkscape:current-layer="svg4" />
  <path
     style="fill:#666666;fill-opacity:1"
     d="M 6.5,1 C 5.67,1 5,1.67 5,2.5 V 4 H 2 C 1.45,4 1,4.45 1,5 V 8 H 2.5 C 3.33,8 4,8.67 4,9.5 4,10.33 3.33,11 2.5,11 H 1 V 14 C 1,14.55 1.45,15 2,15 H 5 V 13.5 C 5,12.67 5.67,12 6.5,12 7.33,12 8,12.67 8,13.5 V 15 H 11 C 11.55,15 12,14.55 12,14 V 11 H 13.5 C 14.33,11 15,10.33 15,9.5 15,8.67 14.33,8 13.5,8 H 12 V 5 C 12,4.45 11.55,4 11,4 H 8 V 2.5 C 8,1.67 7.33,1 6.5,1 Z"
     id="path2" />
</svg>
